X: 1209
T: Kapısı Yok Bacası Yok
C: ?
O: Turkey
F: http://compmusic.upf.edu/node/140
N: beyati--ilahi--duyek--kapisi_yok--
N: makam= beyati
N: form= ilahi
N: usul= duyek = 8/4
M: 8/4
L: 1/16
K: C _2/4B   
Q: 1/4=180
%%MIDI tuningsystem comma53
z2 g2 e3d d4 c2 d2  | fe fg e3d d4 c2 d2  | \
w:  Ka pı *  sı  yok   |  ba *  *  *  ca *  sı  yok   | 
e2 fg e3d d2 cd ef ed  | 
w:  *  hu  *  *  *  Mev *  *  lâm   | 
c2 d4 de dc Bc d4  | z2 d2 d4 c3B A4  | \
w:  hu    |  Gün dü zü  *  yok   | 
_7/8e4 e2 d2 g4 g^f ed  | 
w:  ge ce *  si  yok   | 
c2 c4 B2 B2 A2 c2 BA  | A2 G2 c2 BA A8  | \
w:  *  hu  *  Mev *  lâm   |  hu    | 
z2 g2 e3d d4 c2 d2  | 
w:  Ders_ a *  la cak   | 
fe fg e3d d4 c2 d2  | e2 fg e3d d2 cd ef ed  | 
w:  ho *  *  *  ca *  sı  yok   |  *  hu  *  *  *  Mev *  *  lâm   | 
c2 d4 de dc Bc d4  | z2 d2 d4 c3B A4  | \
w:  hu    |  Ya  ben  ki *  me   | 
_7/8e4 e2 d2 g4 g^f ed  | 
w:  yal va *  ra yım   | 
c2 c4 B2 B2 A2 c2 BA  | A2 G2 c2 BA A8  | \
w:  *  hu  *  Mev *  lâm   |  hu    | 
z2 g2 e3d d4 c2 d2  | 
w:  Ka pı *  sı  yok   | 
fe fg e3d d4 c2 d2  | e2 fg e3d d2 cd ef ed  | 
w:  ba *  *  *  ca *  sı  yok   |  *  hu  *  *  *  Mev *  *  lâm   | 
c2 d4 de dc Bc d4  | z2 d2 d4 c3B A4  | \
w:  hu    |  Gün dü zü  *  yok   | 
_7/8e4 e2 d2 g4 g^f ed  | 
w:  ge ce *  si  yok   | 
c2 c4 B2 B2 A2 c2 BA  | A2 G2 c2 BA A8  | \
w:  *  hu  *  Mev *  lâm   |  hu    | 
z2 g2 e3d d4 c2 d2  | 
w:  Ders_ a *  la cak   | 
fe fg e3d d4 c2 d2  | e2 fg e3d d2 cd ef ed  | 
w:  ho *  *  *  ca *  sı  yok   |  *  hu  *  *  *  Mev *  *  lâm   | 
c2 d4 de dc Bc d4  | z2 d2 d4 c3B A4  | \
w:  hu    |  Ya  ben  ki *  me   | 
_7/8e4 e2 d2 g4 g^f ed  | 
w:  yal va *  ra yım   | 
c2 c4 B2 B2 A2 c2 BA  | A2 G2 c2 BA A8  | |


